X: 27205
T: Miss Ramsey
R: reel
M: 4/4
K: Dmajor
|D3B AFFB|AFBF AFEF|DCDF A2FA|BdAF EDCE|
D3B AFFB|AFBF AFEF|DCDF A2FA|BdAF Da^ga||
fddf eAce|dcdA Bcde|fddf eAce|dBAG FDD2|
fddf eAce|dcdA Bcde|faec dBAF|1 BdAF EDCE||2 BdAF Egfe||
dcdf adfa|gbaf gfef|dcdf adfa|gbaf egfe|
dcdf adfa|gbaf gfef|dcdf adfa|gbaf ea^ga|
fddf eAce|dcdA Bcde|fddf eAce|dBAG FDD2|
fddf eAce|dcdA Bcde|faec dBAF|BdAF EDCE||

